X: 40523
T: Tommy Leddy's
R: jig
M: 6/8
K: Cmajor
A|G2 E EDC|EGG A2 c|GEE EDC|AcA GED|
G2G GED|CEG A2 c|GEE cEE|GED Dcd|
e2e edc|ege edc|dBB GBB|dBd gfd|
e2e edc|ege edc|dBB GBd|fdB c3|

